X:104
T:Within a Mile of Edinbrow Town. LIT.104
M:4/4
Q:1/4=125
L:1/8
B:Wm. Litten MS, 1802
Z:Village Music Project 2017 Anne Wride
K:G
fg | a>f e>f d2 fd | B>d A>F A2 de | f<a b<d' af df | f2 e4 fg |
a<f e<f d2 fd | B<d AF A2 de | f<a b<d' af ef |1 d6 :|2 d8 ||
|: d<e f>g af d'2 | d>e f>g af d'2 | d>e d>B AF Ad | fd fa b>^c' d'b |
af fd Bd Ad |1 fa ef d2 z2:|2 fa ef d2 |]

